source/assets/images/icons/fork-yellow.svg

<?xml version="1.0" encoding="UTF-8" standalone="no"?>
<!DOCTYPE svg PUBLIC "-//W3C//DTD SVG 1.1//EN" "http://www.w3.org/Graphics/SVG/1.1/DTD/svg11.dtd">
<svg width="100%" height="100%" viewBox="0 0 20 20" version="1.1" xmlns="http://www.w3.org/2000/svg" xmlns:xlink="http://www.w3.org/1999/xlink" xml:space="preserve" xmlns:serif="http://www.serif.com/" style="fill-rule:evenodd;clip-rule:evenodd;stroke-linejoin:round;stroke-miterlimit:2;">
    <path d="M18,0L18,18C18,19.097 17.097,20 16,20C14.903,20 14,19.097 14,18L14,13L12,13L12,3C12,1.354 13.354,0 15,0L18,0ZM4,10C2.903,10 2,9.097 2,8L2,1C2,0.451 2.451,0 3,0C3.549,-0 4,0.451 4,1L4,5L5,5L5,1C5,0.451 5.451,0 6,0C6.549,-0 7,0.451 7,1L7,5L8,5L8,1C8,0.451 8.451,0 9,0C9.549,-0 10,0.451 10,1L10,8C10,9.097 9.097,10 8,10L8,18C8,19.097 7.097,20 6,20C4.903,20 4,19.097 4,18L4,10Z" style="fill-rule:nonzero;"/>
</svg>

<svg xmlns="http://www.w3.org/2000/svg" viewBox="0 0 20 20" class="fill-current text-yellow-500">                                    
    <path d="M18 11v7a2 2 0 0 1-4 0v-5h-2V3a3 3 0 0 1 3-3h3v11zM4 10a2 2 0 0 1-2-2V1a1 1 0 0 1 2 0v4h1V1a1 1 0 0 1 2 0v4h1V1a1 1 0 0 1 2 0v7a2 2 0 0 1-2 2v8a2 2 0 0 1-4 0v-8z"></path>
</svg>
